X:63
T:B063-  Chevy Chase
S:(1st/2)
Q:1/4=120
L:1/4
M:6/4
K:Cmixolydian
g|d2dd2G|B2cd2d|f2gag2|(f3f2)f|\
e2de2g|g2gd2e|ff2e2d|(c3c2)|]

